static/assets/img/icons/theme/general/thunder.svg

<svg height="24" viewBox="0 0 24 24" width="24" xmlns="http://www.w3.org/2000/svg"><g fill="none" fill-rule="evenodd"><path d="m0 0h24v24h-24z" opacity="0"/><path d="m12.3740377 19.9389434 5.8486122-8.7729183c.2297643-.3446465.1366339-.8102985-.2080126-1.0400628-.1232006-.0821338-.2679564-.1259623-.4160251-.1259623h-4.5986122v-5.52291827c0-.41421356-.3357864-.75-.75-.75-.2507649 0-.4849384.12532585-.6240377.33397485l-5.8486122 8.77291832c-.22976435.3446465-.13663394.8102985.20801257 1.0400628.12320064.0821338.26795641.1259623.41602515.1259623h4.59861218v5.5229183c0 .4142135.3357864.75.75.75.2507649 0 .4849384-.1253259.6240377-.3339749z" fill="#000"/></g></svg>

<svg width="24px" height="24px" viewBox="0 0 24 24" version="1.1" xmlns="http://www.w3.org/2000/svg" xmlns:xlink="http://www.w3.org/1999/xlink">
    <title>Icon For Thunder</title>
    <g stroke="none" stroke-width="1" fill="none" fill-rule="evenodd">
        <rect opacity="0" x="0" y="0" width="24" height="24"></rect>
        <path d="M12.3740377,19.9389434 L18.2226499,11.1660251 C18.4524142,10.8213786 18.3592838,10.3557266 18.0146373,10.1259623 C17.8914367,10.0438285 17.7466809,10 17.5986122,10 L13,10 L13,4.47708173 C13,4.06286817 12.6642136,3.72708173 12.25,3.72708173 C11.9992351,3.72708173 11.7650616,3.85240758 11.6259623,4.06105658 L5.7773501,12.8339749 C5.54758575,13.1786214 5.64071616,13.6442734 5.98536267,13.8740377 C6.10856331,13.9561715 6.25331908,14 6.40138782,14 L11,14 L11,19.5229183 C11,19.9371318 11.3357864,20.2729183 11.75,20.2729183 C12.0007649,20.2729183 12.2349384,20.1475924 12.3740377,19.9389434 Z" fill="#000000"></path>
    </g>
</svg>
